public/sprite/grunne.svg

<?xml version="1.0" encoding="UTF-8" standalone="no"?>
<svg
   xmlns:dc="http://purl.org/dc/elements/1.1/"
   xmlns:cc="http://creativecommons.org/ns#"
   xmlns:rdf="http://www.w3.org/1999/02/22-rdf-syntax-ns#"
   xmlns:svg="http://www.w3.org/2000/svg"
   xmlns="http://www.w3.org/2000/svg"
   xmlns:sodipodi="http://sodipodi.sourceforge.net/DTD/sodipodi-0.dtd"
   xmlns:inkscape="http://www.inkscape.org/namespaces/inkscape"
   id="Layer_2"
   data-name="Layer 2"
   viewBox="0 0 1 1"
   style="zoom: 1;"
   width="3mm"
   height="3mm"
   version="1.1"
   sodipodi:docname="grunne.svg"
   inkscape:version="0.92.4 (5da689c313, 2019-01-14)">
  <metadata
     id="metadata11">
    <rdf:RDF>
      <cc:Work
         rdf:about="">
        <dc:format>image/svg+xml</dc:format>
        <dc:type
           rdf:resource="http://purl.org/dc/dcmitype/StillImage" />
        <dc:title></dc:title>
      </cc:Work>
    </rdf:RDF>
  </metadata>
  <sodipodi:namedview
     pagecolor="#ffffff"
     bordercolor="#666666"
     borderopacity="1"
     objecttolerance="10"
     gridtolerance="10"
     guidetolerance="10"
     inkscape:pageopacity="0"
     inkscape:pageshadow="2"
     inkscape:window-width="1920"
     inkscape:window-height="1017"
     id="namedview9"
     showgrid="false"
     inkscape:zoom="20.813889"
     inkscape:cx="5.6692913"
     inkscape:cy="5.6692913"
     inkscape:window-x="1912"
     inkscape:window-y="-8"
     inkscape:window-maximized="1"
     inkscape:current-layer="Layer_2" />
  <defs
     id="defs4">
    <style
       id="style2">.cls-1{fill:#231f20;}</style>
  </defs>
  <path
     class="cls-1"
     d="m 0.875,0.425 v 0.15 h -0.3 v 0.3 h -0.15 v -0.3 h -0.3 v -0.15 h 0.3 v -0.3 h 0.15 v 0.3 z"
     id="path6"
     inkscape:connector-curvature="0"
     style="fill:#231f20;stroke-width:0.75;fill-opacity:1;opacity:0.99999999" />
</svg>

<?xml version="1.0" encoding="UTF-8" standalone="no"?>
<svg
   xmlns:dc="http://purl.org/dc/elements/1.1/"
   xmlns:cc="http://creativecommons.org/ns#"
   xmlns:rdf="http://www.w3.org/1999/02/22-rdf-syntax-ns#"
   xmlns:svg="http://www.w3.org/2000/svg"
   xmlns="http://www.w3.org/2000/svg"
   xmlns:sodipodi="http://sodipodi.sourceforge.net/DTD/sodipodi-0.dtd"
   xmlns:inkscape="http://www.inkscape.org/namespaces/inkscape"
   id="Layer_2"
   data-name="Layer 2"
   viewBox="0 0 1 1"
   style="zoom: 1;"
   width="3mm"
   height="3mm"
   version="1.1"
   sodipodi:docname="grunne.svg"
   inkscape:version="0.92.4 (5da689c313, 2019-01-14)">
  <metadata
     id="metadata19">
    <rdf:RDF>
      <cc:Work
         rdf:about="">
        <dc:format>image/svg+xml</dc:format>
        <dc:type
           rdf:resource="http://purl.org/dc/dcmitype/StillImage" />
        <dc:title></dc:title>
      </cc:Work>
    </rdf:RDF>
  </metadata>
  <sodipodi:namedview
     pagecolor="#ffffff"
     bordercolor="#666666"
     borderopacity="1"
     objecttolerance="10"
     gridtolerance="10"
     guidetolerance="10"
     inkscape:pageopacity="0"
     inkscape:pageshadow="2"
     inkscape:window-width="1920"
     inkscape:window-height="1017"
     id="namedview17"
     showgrid="false"
     inkscape:zoom="74.788889"
     inkscape:cx="5.6692913"
     inkscape:cy="5.6692913"
     inkscape:window-x="-8"
     inkscape:window-y="-8"
     inkscape:window-maximized="1"
     inkscape:current-layer="Layer_2" />
  <defs
     id="defs12">
    <style
       id="style10">.cls-1{fill:#231f20;}</style>
  </defs>
  <path
     class="cls-1"
     d="M 0.9,0.42 V 0.58 H 0.58 V 0.9 H 0.42 V 0.58 H 0.1 V 0.42 H 0.42 V 0.1 h 0.16 v 0.32 z"
     id="path14"
     inkscape:connector-curvature="0"
     style="fill:#231f20;stroke-width:0.80000001" />
</svg>
